camo/palette_lut.cube
TITLE "DKS Palette LUT"
LUT_3D_SIZE 5
DOMAIN_MIN 0.0 0.0 0.0
DOMAIN_MAX 1.0 1.0 1.0
0.094118 0.094118 0.094118
0.094118 0.094118 0.094118
0.094118 0.094118 0.094118
0.996078 0.498039 0.125490
0.996078 0.498039 0.125490
0.094118 0.094118 0.094118
0.094118 0.094118 0.094118
0.094118 0.094118 0.094118
0.996078 0.498039 0.125490
0.996078 0.498039 0.125490
0.094118 0.094118 0.094118
0.094118 0.094118 0.094118
0.466667 0.470588 0.474510
0.996078 0.498039 0.125490
0.996078 0.498039 0.125490
0.011765 0.780392 0.470588
0.011765 0.780392 0.470588
1.000000 0.811765 0.003922
1.000000 0.811765 0.003922
1.000000 0.811765 0.003922
0.011765 0.780392 0.470588
0.011765 0.780392 0.470588
1.000000 0.811765 0.003922
1.000000 0.811765 0.003922
1.000000 0.811765 0.003922
0.094118 0.094118 0.094118
0.094118 0.094118 0.094118
0.094118 0.094118 0.094118
0.996078 0.498039 0.125490
0.996078 0.498039 0.125490
0.094118 0.094118 0.094118
0.094118 0.094118 0.094118
0.466667 0.470588 0.474510
0.996078 0.498039 0.125490
0.996078 0.498039 0.125490
0.011765 0.780392 0.470588
0.466667 0.470588 0.474510
0.466667 0.470588 0.474510
0.996078 0.498039 0.125490
0.996078 0.498039 0.125490
0.011765 0.780392 0.470588
0.011765 0.780392 0.470588
0.466667 0.470588 0.474510
0.976471 0.764706 0.466667
0.976471 0.764706 0.466667
0.011765 0.780392 0.470588
0.011765 0.780392 0.470588
0.372549 0.929412 0.701961
0.976471 0.886275 0.466667
0.976471 0.886275 0.466667
0.094118 0.094118 0.094118
0.094118 0.094118 0.094118
0.466667 0.470588 0.474510
0.466667 0.470588 0.474510
0.996078 0.498039 0.125490
0.094118 0.094118 0.094118
0.466667 0.470588 0.474510
0.466667 0.470588 0.474510
0.466667 0.470588 0.474510
0.996078 0.498039 0.125490
0.011765 0.780392 0.470588
0.466667 0.470588 0.474510
0.466667 0.470588 0.474510
0.654902 0.654902 0.654902
0.976471 0.764706 0.466667
0.011765 0.780392 0.470588
0.011765 0.780392 0.470588
0.654902 0.654902 0.654902
0.654902 0.654902 0.654902
0.976471 0.764706 0.466667
0.011765 0.780392 0.470588
0.372549 0.929412 0.701961
0.372549 0.929412 0.701961
0.976471 0.886275 0.466667
0.976471 0.886275 0.466667
0.368627 0.494118 0.756863
0.368627 0.494118 0.756863
0.368627 0.494118 0.756863
0.466667 0.470588 0.474510
0.654902 0.654902 0.654902
0.368627 0.494118 0.756863
0.368627 0.494118 0.756863
0.368627 0.494118 0.756863
0.654902 0.654902 0.654902
0.654902 0.654902 0.654902
0.368627 0.494118 0.756863
0.368627 0.494118 0.756863
0.368627 0.494118 0.756863
0.654902 0.654902 0.654902
0.800000 0.800000 0.800000
0.011765 0.780392 0.470588
0.372549 0.929412 0.701961
0.654902 0.654902 0.654902
0.800000 0.800000 0.800000
1.000000 0.874510 0.690196
0.011765 0.780392 0.470588
0.372549 0.929412 0.701961
0.372549 0.929412 0.701961
0.784314 0.968627 0.898039
1.000000 0.945098 0.690196
0.368627 0.494118 0.756863
0.368627 0.494118 0.756863
0.368627 0.494118 0.756863
0.368627 0.494118 0.756863
0.654902 0.654902 0.654902
0.368627 0.494118 0.756863
0.368627 0.494118 0.756863
0.368627 0.494118 0.756863
0.635294 0.737255 0.968627
0.635294 0.737255 0.968627
0.368627 0.494118 0.756863
0.368627 0.494118 0.756863
0.635294 0.737255 0.968627
0.635294 0.737255 0.968627
0.800000 0.800000 0.800000
0.372549 0.929412 0.701961
0.372549 0.929412 0.701961
0.635294 0.737255 0.968627
0.635294 0.737255 0.968627
0.901961 0.925490 0.980392
0.372549 0.929412 0.701961
0.372549 0.929412 0.701961
0.635294 0.737255 0.968627
0.784314 0.968627 0.898039
0.972549 0.972549 0.972549
