camo/palette_lut.cube
TITLE "DKS Palette LUT"
LUT_3D_SIZE 17
DOMAIN_MIN 0.0 0.0 0.0
DOMAIN_MAX 1.0 1.0 1.0
0.094118 0.094118 0.094118
0.094118 0.094118 0.094118
0.094118 0.094118 0.094118
0.094118 0.094118 0.094118
0.094118 0.094118 0.094118
0.094118 0.094118 0.094118
0.094118 0.094118 0.094118
0.094118 0.094118 0.094118
0.094118 0.094118 0.094118
0.094118 0.094118 0.094118
0.094118 0.094118 0.094118
0.996078 0.498039 0.125490
0.996078 0.498039 0.125490
0.996078 0.498039 0.125490
0.996078 0.498039 0.125490
0.996078 0.498039 0.125490
0.996078 0.498039 0.125490
0.094118 0.094118 0.094118
0.094118 0.094118 0.094118
0.094118 0.094118 0.094118
0.094118 0.094118 0.094118
0.094118 0.094118 0.094118
0.094118 0.094118 0.094118
0.094118 0.094118 0.094118
0.094118 0.094118 0.094118
0.094118 0.094118 0.094118
0.094118 0.094118 0.094118
0.094118 0.094118 0.094118
0.996078 0.498039 0.125490
0.996078 0.498039 0.125490
0.996078 0.498039 0.125490
0.996078 0.498039 0.125490
0.996078 0.498039 0.125490
0.996078 0.498039 0.125490
0.094118 0.094118 0.094118
0.094118 0.094118 0.094118
0.094118 0.094118 0.094118
0.094118 0.094118 0.094118
0.094118 0.094118 0.094118
0.094118 0.094118 0.094118
0.094118 0.094118 0.094118
0.094118 0.094118 0.094118
0.094118 0.094118 0.094118
0.094118 0.094118 0.094118
0.094118 0.094118 0.094118
0.996078 0.498039 0.125490
0.996078 0.498039 0.125490
0.996078 0.498039 0.125490
0.996078 0.498039 0.125490
0.996078 0.498039 0.125490
0.996078 0.498039 0.125490
0.094118 0.094118 0.094118
0.094118 0.094118 0.094118
0.094118 0.094118 0.094118
0.094118 0.094118 0.094118
0.094118 0.094118 0.094118
0.094118 0.094118 0.094118
0.094118 0.094118 0.094118
0.094118 0.094118 0.094118
0.094118 0.094118 0.094118
0.094118 0.094118 0.094118
0.996078 0.498039 0.125490
0.996078 0.498039 0.125490
0.996078 0.498039 0.125490
0.996078 0.498039 0.125490
0.996078 0.498039 0.125490
0.996078 0.498039 0.125490
0.996078 0.498039 0.125490
0.094118 0.094118 0.094118
0.094118 0.094118 0.094118
0.094118 0.094118 0.094118
0.094118 0.094118 0.094118
0.094118 0.094118 0.094118
0.094118 0.094118 0.094118
0.094118 0.094118 0.094118
0.094118 0.094118 0.094118
0.094118 0.094118 0.094118
0.094118 0.094118 0.094118
0.996078 0.498039 0.125490
0.996078 0.498039 0.125490
0.996078 0.498039 0.125490
0.996078 0.498039 0.125490
0.996078 0.498039 0.125490
0.996078 0.498039 0.125490
0.996078 0.498039 0.125490
0.094118 0.094118 0.094118
0.094118 0.094118 0.094118
0.094118 0.094118 0.094118
0.094118 0.094118 0.094118
0.094118 0.094118 0.094118
0.094118 0.094118 0.094118
0.094118 0.094118 0.094118
0.094118 0.094118 0.094118
0.094118 0.094118 0.094118
0.996078 0.498039 0.125490
0.996078 0.498039 0.125490
0.996078 0.498039 0.125490
0.996078 0.498039 0.125490
0.996078 0.498039 0.125490
0.996078 0.498039 0.125490
0.996078 0.498039 0.125490
0.996078 0.498039 0.125490
0.094118 0.094118 0.094118
0.094118 0.094118 0.094118
0.094118 0.094118 0.094118
0.094118 0.094118 0.094118
0.094118 0.094118 0.094118
0.094118 0.094118 0.094118
0.094118 0.094118 0.094118
0.094118 0.094118 0.094118
0.466667 0.470588 0.474510
0.996078 0.498039 0.125490
0.996078 0.498039 0.125490
0.996078 0.498039 0.125490
0.996078 0.498039 0.125490
0.996078 0.498039 0.125490
0.996078 0.498039 0.125490
0.996078 0.498039 0.125490
0.996078 0.498039 0.125490
0.094118 0.094118 0.094118
0.094118 0.094118 0.094118
0.094118 0.094118 0.094118
0.094118 0.094118 0.094118
0.094118 0.094118 0.094118
0.094118 0.094118 0.094118
0.094118 0.094118 0.094118
0.466667 0.470588 0.474510
0.466667 0.470588 0.474510
0.996078 0.498039 0.125490
0.996078 0.498039 0.125490
0.996078 0.498039 0.125490
0.996078 0.498039 0.125490
0.996078 0.498039 0.125490
0.996078 0.498039 0.125490
0.996078 0.498039 0.125490
0.996078 0.498039 0.125490
0.094118 0.094118 0.094118
0.094118 0.094118 0.094118
0.094118 0.094118 0.094118
0.094118 0.094118 0.094118
0.094118 0.094118 0.094118
0.094118 0.094118 0.094118
0.466667 0.470588 0.474510
0.466667 0.470588 0.474510
0.466667 0.470588 0.474510
0.996078 0.498039 0.125490
0.996078 0.498039 0.125490
0.996078 0.498039 0.125490
0.996078 0.498039 0.125490
0.996078 0.498039 0.125490
0.996078 0.498039 0.125490
0.996078 0.498039 0.125490
0.996078 0.498039 0.125490
0.094118 0.094118 0.094118
0.094118 0.094118 0.094118
0.094118 0.094118 0.094118
0.094118 0.094118 0.094118
0.094118 0.094118 0.094118
0.466667 0.470588 0.474510
0.466667 0.470588 0.474510
0.466667 0.470588 0.474510
0.466667 0.470588 0.474510
0.996078 0.498039 0.125490
0.996078 0.498039 0.125490
0.996078 0.498039 0.125490
0.996078 0.498039 0.125490
0.996078 0.498039 0.125490
0.996078 0.498039 0.125490
0.996078 0.498039 0.125490
0.996078 0.498039 0.125490
0.011765 0.780392 0.470588
0.011765 0.780392 0.470588
0.011765 0.780392 0.470588
0.011765 0.780392 0.470588
0.466667 0.470588 0.474510
0.466667 0.470588 0.474510
0.466667 0.470588 0.474510
0.466667 0.470588 0.474510
0.466667 0.470588 0.474510
0.996078 0.498039 0.125490
0.996078 0.498039 0.125490
0.996078 0.498039 0.125490
0.996078 0.498039 0.125490
0.996078 0.498039 0.125490
0.996078 0.498039 0.125490
0.996078 0.498039 0.125490
0.996078 0.498039 0.125490
0.011765 0.780392 0.470588
0.011765 0.780392 0.470588
0.011765 0.780392 0.470588
0.011765 0.780392 0.470588
0.011765 0.780392 0.470588
0.466667 0.470588 0.474510
0.466667 0.470588 0.474510
0.466667 0.470588 0.474510
1.000000 0.811765 0.003922
1.000000 0.811765 0.003922
1.000000 0.811765 0.003922
1.000000 0.811765 0.003922
1.000000 0.811765 0.003922
1.000000 0.811765 0.003922
1.000000 0.811765 0.003922
1.000000 0.811765 0.003922
1.000000 0.811765 0.003922
0.011765 0.780392 0.470588
0.011765 0.780392 0.470588
0.011765 0.780392 0.470588
0.011765 0.780392 0.470588
0.011765 0.780392 0.470588
0.011765 0.780392 0.470588
0.466667 0.470588 0.474510
0.466667 0.470588 0.474510
1.000000 0.811765 0.003922
1.000000 0.811765 0.003922
1.000000 0.811765 0.003922
1.000000 0.811765 0.003922
1.000000 0.811765 0.003922
1.000000 0.811765 0.003922
1.000000 0.811765 0.003922
1.000000 0.811765 0.003922
1.000000 0.811765 0.003922
0.011765 0.780392 0.470588
0.011765 0.780392 0.470588
0.011765 0.780392 0.470588
0.011765 0.780392 0.470588
0.011765 0.780392 0.470588
0.011765 0.780392 0.470588
0.466667 0.470588 0.474510
1.000000 0.811765 0.003922
1.000000 0.811765 0.003922
1.000000 0.811765 0.003922
1.000000 0.811765 0.003922
1.000000 0.811765 0.003922
1.000000 0.811765 0.003922
1.000000 0.811765 0.003922
1.000000 0.811765 0.003922
1.000000 0.811765 0.003922
1.000000 0.811765 0.003922
0.011765 0.780392 0.470588
0.011765 0.780392 0.470588
0.011765 0.780392 0.470588
0.011765 0.780392 0.470588
0.011765 0.780392 0.470588
0.011765 0.780392 0.470588
0.011765 0.780392 0.470588
1.000000 0.811765 0.003922
1.000000 0.811765 0.003922
1.000000 0.811765 0.003922
1.000000 0.811765 0.003922
1.000000 0.811765 0.003922
1.000000 0.811765 0.003922
1.000000 0.811765 0.003922
1.000000 0.811765 0.003922
1.000000 0.811765 0.003922
1.000000 0.811765 0.003922
0.011765 0.780392 0.470588
0.011765 0.780392 0.470588
0.011765 0.780392 0.470588
0.011765 0.780392 0.470588
0.011765 0.780392 0.470588
0.011765 0.780392 0.470588
0.011765 0.780392 0.470588
1.000000 0.811765 0.003922
1.000000 0.811765 0.003922
1.000000 0.811765 0.003922
1.000000 0.811765 0.003922
1.000000 0.811765 0.003922
1.000000 0.811765 0.003922
1.000000 0.811765 0.003922
1.000000 0.811765 0.003922
1.000000 0.811765 0.003922
1.000000 0.811765 0.003922
0.011765 0.780392 0.470588
0.011765 0.780392 0.470588
0.011765 0.780392 0.470588
0.011765 0.780392 0.470588
0.011765 0.780392 0.470588
0.011765 0.780392 0.470588
0.011765 0.780392 0.470588
1.000000 0.811765 0.003922
1.000000 0.811765 0.003922
1.000000 0.811765 0.003922
1.000000 0.811765 0.003922
1.000000 0.811765 0.003922
1.000000 0.811765 0.003922
1.000000 0.811765 0.003922
1.000000 0.811765 0.003922
1.000000 0.811765 0.003922
1.000000 0.811765 0.003922
0.094118 0.094118 0.094118
0.094118 0.094118 0.094118
0.094118 0.094118 0.094118
0.094118 0.094118 0.094118
0.094118 0.094118 0.094118
0.094118 0.094118 0.094118
0.094118 0.094118 0.094118
0.094118 0.094118 0.094118
0.094118 0.094118 0.094118
0.094118 0.094118 0.094118
0.094118 0.094118 0.094118
0.996078 0.498039 0.125490
0.996078 0.498039 0.125490
0.996078 0.498039 0.125490
0.996078 0.498039 0.125490
0.996078 0.498039 0.125490
0.996078 0.498039 0.125490
0.094118 0.094118 0.094118
0.094118 0.094118 0.094118
0.094118 0.094118 0.094118
0.094118 0.094118 0.094118
0.094118 0.094118 0.094118
0.094118 0.094118 0.094118
0.094118 0.094118 0.094118
0.094118 0.094118 0.094118
0.094118 0.094118 0.094118
0.094118 0.094118 0.094118
0.094118 0.094118 0.094118
0.996078 0.498039 0.125490
0.996078 0.498039 0.125490
0.996078 0.498039 0.125490
0.996078 0.498039 0.125490
0.996078 0.498039 0.125490
0.996078 0.498039 0.125490
0.094118 0.094118 0.094118
0.094118 0.094118 0.094118
0.094118 0.094118 0.094118
0.094118 0.094118 0.094118
0.094118 0.094118 0.094118
0.094118 0.094118 0.094118
0.094118 0.094118 0.094118
0.094118 0.094118 0.094118
0.094118 0.094118 0.094118
0.094118 0.094118 0.094118
0.996078 0.498039 0.125490
0.996078 0.498039 0.125490
0.996078 0.498039 0.125490
0.996078 0.498039 0.125490
0.996078 0.498039 0.125490
0.996078 0.498039 0.125490
0.996078 0.498039 0.125490
0.094118 0.094118 0.094118
0.094118 0.094118 0.094118
0.094118 0.094118 0.094118
0.094118 0.094118 0.094118
0.094118 0.094118 0.094118
0.094118 0.094118 0.094118
0.094118 0.094118 0.094118
0.094118 0.094118 0.094118
0.094118 0.094118 0.094118
0.094118 0.094118 0.094118
0.996078 0.498039 0.125490
0.996078 0.498039 0.125490
0.996078 0.498039 0.125490
0.996078 0.498039 0.125490
0.996078 0.498039 0.125490
0.996078 0.498039 0.125490
0.996078 0.498039 0.125490
0.094118 0.094118 0.094118
0.094118 0.094118 0.094118
0.094118 0.094118 0.094118
0.094118 0.094118 0.094118
0.094118 0.094118 0.094118
0.094118 0.094118 0.094118
0.094118 0.094118 0.094118
0.094118 0.094118 0.094118
0.094118 0.094118 0.094118
0.466667 0.470588 0.474510
0.996078 0.498039 0.125490
0.996078 0.498039 0.125490
0.996078 0.498039 0.125490
0.996078 0.498039 0.125490
0.996078 0.498039 0.125490
0.996078 0.498039 0.125490
0.996078 0.498039 0.125490
0.094118 0.094118 0.094118
0.094118 0.094118 0.094118
0.094118 0.094118 0.094118
0.094118 0.094118 0.094118
0.094118 0.094118 0.094118
0.094118 0.094118 0.094118
0.094118 0.094118 0.094118
0.094118 0.094118 0.094118
0.466667 0.470588 0.474510
0.466667 0.470588 0.474510
0.996078 0.498039 0.125490
0.996078 0.498039 0.125490
0.996078 0.498039 0.125490
0.996078 0.498039 0.125490
0.996078 0.498039 0.125490
0.996078 0.498039 0.125490
0.996078 0.498039 0.125490
0.094118 0.094118 0.094118
0.094118 0.094118 0.094118
0.094118 0.094118 0.094118
0.094118 0.094118 0.094118
0.094118 0.094118 0.094118
0.094118 0.094118 0.094118
0.094118 0.094118 0.094118
0.466667 0.470588 0.474510
0.466667 0.470588 0.474510
0.466667 0.470588 0.474510
0.996078 0.498039 0.125490
0.996078 0.498039 0.125490
0.996078 0.498039 0.125490
0.996078 0.498039 0.125490
0.996078 0.498039 0.125490
0.996078 0.498039 0.125490
0.996078 0.498039 0.125490
0.094118 0.094118 0.094118
0.094118 0.094118 0.094118
0.094118 0.094118 0.094118
0.094118 0.094118 0.094118
0.094118 0.094118 0.094118
0.094118 0.094118 0.094118
0.466667 0.470588 0.474510
0.466667 0.470588 0.474510
0.466667 0.470588 0.474510
0.466667 0.470588 0.474510
0.996078 0.498039 0.125490
0.996078 0.498039 0.125490
0.996078 0.498039 0.125490
0.996078 0.498039 0.125490
0.996078 0.498039 0.125490
0.996078 0.498039 0.125490
0.996078 0.498039 0.125490
0.094118 0.094118 0.094118
0.094118 0.094118 0.094118
0.094118 0.094118 0.094118
0.094118 0.094118 0.094118
0.094118 0.094118 0.094118
0.466667 0.470588 0.474510
0.466667 0.470588 0.474510
0.466667 0.470588 0.474510
0.466667 0.470588 0.474510
0.466667 0.470588 0.474510
0.996078 0.498039 0.125490
0.996078 0.498039 0.125490
0.996078 0.498039 0.125490
0.996078 0.498039 0.125490
0.996078 0.498039 0.125490
0.996078 0.498039 0.125490
0.996078 0.498039 0.125490
0.011765 0.780392 0.470588
0.011765 0.780392 0.470588
0.094118 0.094118 0.094118
0.094118 0.094118 0.094118
0.466667 0.470588 0.474510
0.466667 0.470588 0.474510
0.466667 0.470588 0.474510
0.466667 0.470588 0.474510
0.466667 0.470588 0.474510
0.466667 0.470588 0.474510
0.996078 0.498039 0.125490
0.996078 0.498039 0.125490
0.996078 0.498039 0.125490
0.996078 0.498039 0.125490
0.996078 0.498039 0.125490
0.996078 0.498039 0.125490
0.996078 0.498039 0.125490
0.011765 0.780392 0.470588
0.011765 0.780392 0.470588
0.011765 0.780392 0.470588
0.011765 0.780392 0.470588
0.466667 0.470588 0.474510
0.466667 0.470588 0.474510
0.466667 0.470588 0.474510
0.466667 0.470588 0.474510
0.466667 0.470588 0.474510
0.466667 0.470588 0.474510
0.996078 0.498039 0.125490
0.996078 0.498039 0.125490
0.996078 0.498039 0.125490
0.996078 0.498039 0.125490
0.996078 0.498039 0.125490
0.996078 0.498039 0.125490
0.996078 0.498039 0.125490
0.011765 0.780392 0.470588
0.011765 0.780392 0.470588
0.011765 0.780392 0.470588
0.011765 0.780392 0.470588
0.011765 0.780392 0.470588
0.466667 0.470588 0.474510
0.466667 0.470588 0.474510
0.466667 0.470588 0.474510
0.466667 0.470588 0.474510
1.000000 0.811765 0.003922
1.000000 0.811765 0.003922
1.000000 0.811765 0.003922
1.000000 0.811765 0.003922
1.000000 0.811765 0.003922
1.000000 0.811765 0.003922
1.000000 0.811765 0.003922
1.000000 0.811765 0.003922
0.011765 0.780392 0.470588
0.011765 0.780392 0.470588
0.011765 0.780392 0.470588
0.011765 0.780392 0.470588
0.011765 0.780392 0.470588
0.011765 0.780392 0.470588
0.466667 0.470588 0.474510
0.466667 0.470588 0.474510
0.466667 0.470588 0.474510
1.000000 0.811765 0.003922
1.000000 0.811765 0.003922
1.000000 0.811765 0.003922
1.000000 0.811765 0.003922
1.000000 0.811765 0.003922
1.000000 0.811765 0.003922
1.000000 0.811765 0.003922
1.000000 0.811765 0.003922
0.011765 0.780392 0.470588
0.011765 0.780392 0.470588
0.011765 0.780392 0.470588
0.011765 0.780392 0.470588
0.011765 0.780392 0.470588
0.011765 0.780392 0.470588
0.466667 0.470588 0.474510
0.466667 0.470588 0.474510
1.000000 0.811765 0.003922
1.000000 0.811765 0.003922
1.000000 0.811765 0.003922
1.000000 0.811765 0.003922
1.000000 0.811765 0.003922
1.000000 0.811765 0.003922
1.000000 0.811765 0.003922
1.000000 0.811765 0.003922
1.000000 0.811765 0.003922
0.011765 0.780392 0.470588
0.011765 0.780392 0.470588
0.011765 0.780392 0.470588
0.011765 0.780392 0.470588
0.011765 0.780392 0.470588
0.011765 0.780392 0.470588
0.011765 0.780392 0.470588
1.000000 0.811765 0.003922
1.000000 0.811765 0.003922
1.000000 0.811765 0.003922
1.000000 0.811765 0.003922
1.000000 0.811765 0.003922
1.000000 0.811765 0.003922
1.000000 0.811765 0.003922
1.000000 0.811765 0.003922
1.000000 0.811765 0.003922
1.000000 0.811765 0.003922
0.011765 0.780392 0.470588
0.011765 0.780392 0.470588
0.011765 0.780392 0.470588
0.011765 0.780392 0.470588
0.011765 0.780392 0.470588
0.011765 0.780392 0.470588
0.011765 0.780392 0.470588
1.000000 0.811765 0.003922
1.000000 0.811765 0.003922
1.000000 0.811765 0.003922
1.000000 0.811765 0.003922
1.000000 0.811765 0.003922
1.000000 0.811765 0.003922
1.000000 0.811765 0.003922
1.000000 0.811765 0.003922
1.000000 0.811765 0.003922
1.000000 0.811765 0.003922
0.011765 0.780392 0.470588
0.011765 0.780392 0.470588
0.011765 0.780392 0.470588
0.011765 0.780392 0.470588
0.011765 0.780392 0.470588
0.011765 0.780392 0.470588
0.011765 0.780392 0.470588
1.000000 0.811765 0.003922
1.000000 0.811765 0.003922
1.000000 0.811765 0.003922
1.000000 0.811765 0.003922
1.000000 0.811765 0.003922
1.000000 0.811765 0.003922
1.000000 0.811765 0.003922
1.000000 0.811765 0.003922
1.000000 0.811765 0.003922
1.000000 0.811765 0.003922
0.094118 0.094118 0.094118
0.094118 0.094118 0.094118
0.094118 0.094118 0.094118
0.094118 0.094118 0.094118
0.094118 0.094118 0.094118
0.094118 0.094118 0.094118
0.094118 0.094118 0.094118
0.094118 0.094118 0.094118
0.094118 0.094118 0.094118
0.094118 0.094118 0.094118
0.094118 0.094118 0.094118
0.996078 0.498039 0.125490
0.996078 0.498039 0.125490
0.996078 0.498039 0.125490
0.996078 0.498039 0.125490
0.996078 0.498039 0.125490
0.996078 0.498039 0.125490
0.094118 0.094118 0.094118
0.094118 0.094118 0.094118
0.094118 0.094118 0.094118
0.094118 0.094118 0.094118
0.094118 0.094118 0.094118
0.094118 0.094118 0.094118
0.094118 0.094118 0.094118
0.094118 0.094118 0.094118
0.094118 0.094118 0.094118
0.094118 0.094118 0.094118
0.094118 0.094118 0.094118
0.996078 0.498039 0.125490
0.996078 0.498039 0.125490
0.996078 0.498039 0.125490
0.996078 0.498039 0.125490
0.996078 0.498039 0.125490
0.996078 0.498039 0.125490
0.094118 0.094118 0.094118
0.094118 0.094118 0.094118
0.094118 0.094118 0.094118
0.094118 0.094118 0.094118
0.094118 0.094118 0.094118
0.094118 0.094118 0.094118
0.094118 0.094118 0.094118
0.094118 0.094118 0.094118
0.094118 0.094118 0.094118
0.094118 0.094118 0.094118
0.466667 0.470588 0.474510
0.996078 0.498039 0.125490
0.996078 0.498039 0.125490
0.996078 0.498039 0.125490
0.996078 0.498039 0.125490
0.996078 0.498039 0.125490
0.996078 0.498039 0.125490
0.094118 0.094118 0.094118
0.094118 0.094118 0.094118
0.094118 0.094118 0.094118
0.094118 0.094118 0.094118
0.094118 0.094118 0.094118
0.094118 0.094118 0.094118
0.094118 0.094118 0.094118
0.094118 0.094118 0.094118
0.094118 0.094118 0.094118
0.466667 0.470588 0.474510
0.466667 0.470588 0.474510
0.996078 0.498039 0.125490
0.996078 0.498039 0.125490
0.996078 0.498039 0.125490
0.996078 0.498039 0.125490
0.996078 0.498039 0.125490
0.996078 0.498039 0.125490
0.094118 0.094118 0.094118
0.094118 0.094118 0.094118
0.094118 0.094118 0.094118
0.094118 0.094118 0.094118
0.094118 0.094118 0.094118
0.094118 0.094118 0.094118
0.094118 0.094118 0.094118
0.094118 0.094118 0.094118
0.466667 0.470588 0.474510
0.466667 0.470588 0.474510
0.466667 0.470588 0.474510
0.996078 0.498039 0.125490
0.996078 0.498039 0.125490
0.996078 0.498039 0.125490
0.996078 0.498039 0.125490
0.996078 0.498039 0.125490
0.996078 0.498039 0.125490
0.094118 0.094118 0.094118
0.094118 0.094118 0.094118
0.094118 0.094118 0.094118
0.094118 0.094118 0.094118
0.094118 0.094118 0.094118
0.094118 0.094118 0.094118
0.094118 0.094118 0.094118
0.466667 0.470588 0.474510
0.466667 0.470588 0.474510
0.466667 0.470588 0.474510
0.996078 0.498039 0.125490
0.996078 0.498039 0.125490
0.996078 0.498039 0.125490
0.996078 0.498039 0.125490
0.996078 0.498039 0.125490
0.996078 0.498039 0.125490
0.996078 0.498039 0.125490
0.094118 0.094118 0.094118
0.094118 0.094118 0.094118
0.094118 0.094118 0.094118
0.094118 0.094118 0.094118
0.094118 0.094118 0.094118
0.094118 0.094118 0.094118
0.466667 0.470588 0.474510
0.466667 0.470588 0.474510
0.466667 0.470588 0.474510
0.466667 0.470588 0.474510
0.996078 0.498039 0.125490
0.996078 0.498039 0.125490
0.996078 0.498039 0.125490
0.996078 0.498039 0.125490
0.996078 0.498039 0.125490
0.996078 0.498039 0.125490
0.996078 0.498039 0.125490
0.094118 0.094118 0.094118
0.094118 0.094118 0.094118
0.094118 0.094118 0.094118
0.094118 0.094118 0.094118
0.094118 0.094118 0.094118
0.466667 0.470588 0.474510
0.466667 0.470588 0.474510
0.466667 0.470588 0.474510
0.466667 0.470588 0.474510
0.466667 0.470588 0.474510
0.996078 0.498039 0.125490
0.996078 0.498039 0.125490
0.996078 0.498039 0.125490
0.996078 0.498039 0.125490
0.996078 0.498039 0.125490
0.996078 0.498039 0.125490
0.996078 0.498039 0.125490
0.094118 0.094118 0.094118
0.094118 0.094118 0.094118
0.094118 0.094118 0.094118
0.094118 0.094118 0.094118
0.466667 0.470588 0.474510
0.466667 0.470588 0.474510
0.466667 0.470588 0.474510
0.466667 0.470588 0.474510
0.466667 0.470588 0.474510
0.466667 0.470588 0.474510
0.996078 0.498039 0.125490
0.996078 0.498039 0.125490
0.996078 0.498039 0.125490
0.996078 0.498039 0.125490
0.996078 0.498039 0.125490
0.996078 0.498039 0.125490
0.996078 0.498039 0.125490
0.011765 0.780392 0.470588
0.011765 0.780392 0.470588
0.011765 0.780392 0.470588
0.011765 0.780392 0.470588
0.466667 0.470588 0.474510
0.466667 0.470588 0.474510
0.466667 0.470588 0.474510
0.466667 0.470588 0.474510
0.466667 0.470588 0.474510
0.466667 0.470588 0.474510
0.996078 0.498039 0.125490
0.996078 0.498039 0.125490
0.996078 0.498039 0.125490
0.996078 0.498039 0.125490
0.996078 0.498039 0.125490
0.996078 0.498039 0.125490
0.996078 0.498039 0.125490
0.011765 0.780392 0.470588
0.011765 0.780392 0.470588
0.011765 0.780392 0.470588
0.011765 0.780392 0.470588
0.466667 0.470588 0.474510
0.466667 0.470588 0.474510
0.466667 0.470588 0.474510
0.466667 0.470588 0.474510
0.466667 0.470588 0.474510
0.466667 0.470588 0.474510
0.996078 0.498039 0.125490
0.996078 0.498039 0.125490
0.996078 0.498039 0.125490
0.996078 0.498039 0.125490
0.996078 0.498039 0.125490
0.996078 0.498039 0.125490
0.996078 0.498039 0.125490
0.011765 0.780392 0.470588
0.011765 0.780392 0.470588
0.011765 0.780392 0.470588
0.011765 0.780392 0.470588
0.011765 0.780392 0.470588
0.466667 0.470588 0.474510
0.466667 0.470588 0.474510
0.466667 0.470588 0.474510
0.466667 0.470588 0.474510
0.466667 0.470588 0.474510
1.000000 0.811765 0.003922
1.000000 0.811765 0.003922
1.000000 0.811765 0.003922
1.000000 0.811765 0.003922
1.000000 0.811765 0.003922
1.000000 0.811765 0.003922
1.000000 0.811765 0.003922
0.011765 0.780392 0.470588
0.011765 0.780392 0.470588
0.011765 0.780392 0.470588
0.011765 0.780392 0.470588
0.011765 0.780392 0.470588
0.011765 0.780392 0.470588
0.466667 0.470588 0.474510
0.466667 0.470588 0.474510
0.466667 0.470588 0.474510
0.466667 0.470588 0.474510
1.000000 0.811765 0.003922
1.000000 0.811765 0.003922
1.000000 0.811765 0.003922
1.000000 0.811765 0.003922
1.000000 0.811765 0.003922
1.000000 0.811765 0.003922
1.000000 0.811765 0.003922
0.011765 0.780392 0.470588
0.011765 0.780392 0.470588
0.011765 0.780392 0.470588
0.011765 0.780392 0.470588
0.011765 0.780392 0.470588
0.011765 0.780392 0.470588
0.466667 0.470588 0.474510
0.466667 0.470588 0.474510
0.466667 0.470588 0.474510
1.000000 0.811765 0.003922
1.000000 0.811765 0.003922
1.000000 0.811765 0.003922
1.000000 0.811765 0.003922
1.000000 0.811765 0.003922
1.000000 0.811765 0.003922
1.000000 0.811765 0.003922
1.000000 0.811765 0.003922
0.011765 0.780392 0.470588
0.011765 0.780392 0.470588
0.011765 0.780392 0.470588
0.011765 0.780392 0.470588
0.011765 0.780392 0.470588
0.011765 0.780392 0.470588
0.011765 0.780392 0.470588
0.466667 0.470588 0.474510
1.000000 0.811765 0.003922
1.000000 0.811765 0.003922
1.000000 0.811765 0.003922
1.000000 0.811765 0.003922
1.000000 0.811765 0.003922
1.000000 0.811765 0.003922
1.000000 0.811765 0.003922
1.000000 0.811765 0.003922
1.000000 0.811765 0.003922
0.011765 0.780392 0.470588
0.011765 0.780392 0.470588
0.011765 0.780392 0.470588
0.011765 0.780392 0.470588
0.011765 0.780392 0.470588
0.011765 0.780392 0.470588
0.011765 0.780392 0.470588
0.011765 0.780392 0.470588
1.000000 0.811765 0.003922
1.000000 0.811765 0.003922
1.000000 0.811765 0.003922
1.000000 0.811765 0.003922
1.000000 0.811765 0.003922
1.000000 0.811765 0.003922
1.000000 0.811765 0.003922
1.000000 0.811765 0.003922
1.000000 0.811765 0.003922
0.011765 0.780392 0.470588
0.011765 0.780392 0.470588
0.011765 0.780392 0.470588
0.011765 0.780392 0.470588
0.011765 0.780392 0.470588
0.011765 0.780392 0.470588
0.011765 0.780392 0.470588
0.372549 0.929412 0.701961
1.000000 0.811765 0.003922
1.000000 0.811765 0.003922
1.000000 0.811765 0.003922
1.000000 0.811765 0.003922
1.000000 0.811765 0.003922
1.000000 0.811765 0.003922
1.000000 0.811765 0.003922
1.000000 0.811765 0.003922
1.000000 0.811765 0.003922
0.094118 0.094118 0.094118
0.094118 0.094118 0.094118
0.094118 0.094118 0.094118
0.094118 0.094118 0.094118
0.094118 0.094118 0.094118
0.094118 0.094118 0.094118
0.094118 0.094118 0.094118
0.094118 0.094118 0.094118
0.094118 0.094118 0.094118
0.094118 0.094118 0.094118
0.094118 0.094118 0.094118
0.996078 0.498039 0.125490
0.996078 0.498039 0.125490
0.996078 0.498039 0.125490
0.996078 0.498039 0.125490
0.996078 0.498039 0.125490
0.996078 0.498039 0.125490
0.094118 0.094118 0.094118
